icon/pk/peoples-two.svg

<svg viewBox="0 0 48 48" fill="none" xmlns="http://www.w3.org/2000/svg" height="1em" width="1em">
  <path d="M24 20C27.866 20 31 16.866 31 13C31 9.13401 27.866 6 24 6C20.134 6 17 9.13401 17 13C17 16.866 20.134 20 24 20Z" fill="#2F88FF" stroke="black" stroke-width="4" stroke-linecap="round" stroke-linejoin="round"/>
  <path d="M12 7.25488C10.1865 8.51983 9 10.6214 9 13.0002C9 15.5465 10.3596 17.7753 12.3924 19.0002" stroke="black" stroke-width="4" stroke-linecap="round" stroke-linejoin="round"/>
  <path d="M36 7.25488C37.8135 8.51983 39 10.6214 39 13.0002C39 15.3789 37.8135 17.4806 36 18.7455" stroke="black" stroke-width="4" stroke-linecap="round" stroke-linejoin="round"/>
  <path d="M12 40V42H36V40C36 36.2725 36 34.4087 35.391 32.9385C34.5791 30.9783 33.0217 29.4209 31.0615 28.609C29.5913 28 27.7275 28 24 28C20.2725 28 18.4087 28 16.9385 28.609C14.9783 29.4209 13.4209 30.9783 12.609 32.9385C12 34.4087 12 36.2725 12 40Z" fill="#2F88FF" stroke="black" stroke-width="4" stroke-linecap="round" stroke-linejoin="round"/>
  <path d="M43.9999 42.0001V40.8001C43.9999 36.3197 43.9999 34.0795 43.128 32.3682C42.361 30.8629 41.1371 29.6391 39.6318 28.8721" stroke="black" stroke-width="4" stroke-linecap="round" stroke-linejoin="round"/>
  <path d="M4.00009 42.0001V40.8001C4.00009 36.3197 4.00009 34.0795 4.87204 32.3682C5.63902 30.8629 6.86287 29.6391 8.36816 28.8721" stroke="black" stroke-width="4" stroke-linecap="round" stroke-linejoin="round"/>
</svg>

<svg width="48" height="48" fill="none" xmlns="http://www.w3.org/2000/svg"><path d="M24 20a7 7 0 1 0 0-14 7 7 0 0 0 0 14Z" fill="#2F88FF" stroke="#000" stroke-width="4" stroke-linecap="round" stroke-linejoin="round"/><path d="M12 7.255A6.992 6.992 0 0 0 9 13a6.996 6.996 0 0 0 3.392 6M36 7.255A6.992 6.992 0 0 1 39 13a6.992 6.992 0 0 1-3 5.745" stroke="#000" stroke-width="4" stroke-linecap="round" stroke-linejoin="round"/><path d="M12 40v2h24v-2c0-3.727 0-5.591-.609-7.062a8 8 0 0 0-4.33-4.329C29.591 28 27.727 28 24 28s-5.591 0-7.061.609a8 8 0 0 0-4.33 4.33C12 34.408 12 36.273 12 40Z" fill="#2F88FF" stroke="#000" stroke-width="4" stroke-linecap="round" stroke-linejoin="round"/><path d="M44 42v-1.2c0-4.48 0-6.72-.872-8.432a8 8 0 0 0-3.496-3.496M4 42v-1.2c0-4.48 0-6.72.872-8.432a8 8 0 0 1 3.496-3.496" stroke="#000" stroke-width="4" stroke-linecap="round" stroke-linejoin="round"/></svg>
